X: 567
T: Cahill's courtship
C: anon.
O: Ireland
B: Francis O'Neill: "The Dance Music of Ireland" (1907) no. 567
R: Reel
Z: Transcribed by Frank Nordberg - http://www.musicaviva.com
F: http://www.musicaviva.com/abc/tunes/ireland/oneill-1001/oneill-1001-056
7.abc
M: C|
L: 1/8
K: D
A,2 "^_segno" |D2(FD) EDCA,|D2(FD) dBAF|D2(FD) EDB,B|AGFE DGFE|D2(FD) EDC
A,|D2(FD) dBAF|D2FD EDB,B|AGFE D2 H ||
(3(ABc)|dAFA BAFA|dAFD EDB,A,|dAFA BAFB|AGFE D2(3(ABc)|dAFA BAFA|dAFD EDB
,A,|DEFG AdcB|AGFE DGFE "^segno" |]
W:
W:
W: From Musica Viva - http://www.musicaviva.com
W: the Internet center for free sheet music downloads.


